X:105
T:Prince William
M:2/2
L:1/4
K:G
uD2 | "G" vG2 B A/G/| "D" A2 D "C" uc| "G" B2 "D" A2| "G" G/F/G/A/ G z/ "D" A | "G" B G D B | "D" A3 "Em" G| "D" F d "A" A ^c | "D" d2 d2 :|
|: "G" d2 "Am" e d | "C" c> B- "D" A d | "Am" c-B "D" A "G" G | "D" F/G/A/F/ "G" D2 | "G" G F/G/ "D" A G/A/ | "G" B A/B/ "C" c d | "G" B A/G/ "D" D F | "G" G2 G2 :|
%
%
